**kern	**silbe	**kern	**silbe	**harmony	**chordsym	**phrase	**timestamp	**leadinstrument
*ICvox	*	*ICvox	*	*M4/4	*M4/4	*	*	*
*E:	*	*E:	*	*E:	*E:	*	*	*
*M4/4	*	*M4/4	*	*	*	*	*	*
*clefG2	*	*clefG2	*	*	*	*	*	*
=1	=1	=1	=1	=1	=1	=1	=1	=1
1r	.	r;	.	1r;	r	.	0	r
=2	=2	=2	=2	=2	=2	=2	=2	=2
*	*	*	*	*>A_intro	*>A_intro	*>A_intro	*>A_intro	*>A_intro
1r	.	1r	.	1N	N	newline	0.55	r
=3	=3	=3	=3	=3	=3	=3	=3	=3
1r	.	1r	.	1N	N	.	.	r
=4	=4	=4	=4	=4	=4	=4	=4	=4
1r	.	1r	.	1EM	E:maj (E G# B)	.	.	r
=5	=5	=5	=5	=5	=5	=5	=5	=5
4.r	.	1r	.	1EM	E:maj (E G# B)	.	.	r
8e	The	.	.	.	.	.	.	.
4e	night	.	.	.	.	.	.	.
4d#	we	.	.	.	.	.	.	.
=6	=6	=6	=6	=6	=6	=6	=6	=6
*	*	*	*	*>B_verse	*>B_verse	*>B_verse	*>B_verse	*>B_verse
4d#	met	1r	.	1EM	E:maj (E G# B)	newline	8.108	voice
4c#	I	.	.	.	.	.	.	.
4d#	knew	.	.	.	.	.	.	.
4e	I	.	.	.	.	.	.	.
=7	=7	=7	=7	=7	=7	=7	=7	=7
2r	.	1r	.	1EM	E:maj (E G# B)	.	.	voice
8f#	need-	.	.	.	.	.	.	.
8f#	-ed	.	.	.	.	.	.	.
4e	you	.	.	.	.	.	.	.
=8	=8	=8	=8	=8	=8	=8	=8	=8
4d#	so	1r	.	1F#m	F#:min (F# A C#)	.	.	voice
4r	.	.	.	.	.	.	.	.
2r	.	.	.	.	.	.	.	.
=9	=9	=9	=9	=9	=9	=9	=9	=9
4r	.	1r	.	1BM	B:maj (B D# F#)	.	.	voice
8r	.	.	.	.	.	.	.	.
8e	And	.	.	.	.	.	.	.
8e	if	.	.	.	.	.	.	.
4.d#	I	.	.	.	.	.	.	.
=10	=10	=10	=10	=10	=10	=10	=10	=10
4d#	had	1r	.	1EM	E:maj (E G# B)	.	.	voice
8c#	the	.	.	.	.	.	.	.
8[d#	chance	.	.	.	.	.	.	.
4d#]	_	.	.	.	.	.	.	.
4e	I'd	.	.	.	.	.	.	.
=11	=11	=11	=11	=11	=11	=11	=11	=11
4r	.	1r	.	1EM	E:maj (E G# B)	.	.	voice
8f#	ne-	.	.	.	.	.	.	.
8e	-ver	.	.	.	.	.	.	.
4f#	let	.	.	.	.	.	.	.
4e	you	.	.	.	.	.	.	.
=12	=12	=12	=12	=12	=12	=12	=12	=12
4d#	go	1r	.	1F#m	F#:min (F# A C#)	.	.	voice
4r	.	.	.	.	.	.	.	.
2r	.	.	.	.	.	.	.	.
=13	=13	=13	=13	=13	=13	=13	=13	=13
4r	.	1r	.	1BM	B:maj (B D# F#)	.	.	voice
8r	.	.	.	.	.	.	.	.
8g#	So	.	.	.	.	.	.	.
4f##	won't	.	.	.	.	.	.	.
8g#	you	.	.	.	.	.	.	.
8[a	say	.	.	.	.	.	.	.
=14	=14	=14	=14	=14	=14	=14	=14	=14
*	*	*	*	*>C_bridge	*>C_bridge	*>C_bridge	*>C_bridge	*>C_bridge
8a]	_	1r	.	1G#Mm	G#:7 (G# B# D# F#)	newline	22.821	voice
4g#	you	.	.	.	.	.	.	.
8[f##	love	.	.	.	.	.	.	.
8f	_	.	.	.	.	.	.	.
4.g#	me	.	.	.	.	.	.	.
=15	=15	=15	=15	=15	=15	=15	=15	=15
4r	.	1r	.	1G#Mm	G#:7 (G# B# D# F#)	.	.	voice
8r	.	.	.	.	.	.	.	.
8[g#	I'll	.	.	.	.	.	.	.
8g#]	_	.	.	.	.	.	.	.
8.f##]	make	.	.	.	.	.	.	.
8.g#	you	.	.	.	.	.	.	.
=16	=16	=16	=16	=16	=16	=16	=16	=16
4.a	so	1r	.	1C#Mm	C#:7 (C# E# G# B)	.	.	voice
8g#	proud	.	.	.	.	.	.	.
8e#	of	.	.	.	.	.	.	.
4.c#	me	.	.	.	.	.	.	.
=17	=17	=17	=17	=17	=17	=17	=17	=17
4r	.	1r	.	1C#Mm	C#:7 (C# E# G# B)	.	.	voice
8r	.	.	.	.	.	.	.	.
8f#	We'll	.	.	.	.	.	.	.
8e#	make	.	.	.	.	.	.	.
4f#	'em	.	.	.	.	.	.	.
8[g	turn	.	.	.	.	.	.	.
=18	=18	=18	=18	=18	=18	=18	=18	=18
8g]	_	1r	.	1F#Mm	F#:7 (F# A# C# E)	newline	30.173	voice
4f#	their	.	.	.	.	.	.	.
8[e	heads	.	.	.	.	.	.	.
8e]	_	.	.	.	.	.	.	.
8r	.	.	.	.	.	.	.	.
4r	.	.	.	.	.	.	.	.
=19	=19	=19	=19	=19	=19	=19	=19	=19
4d#	ev-	1r	.	1F#Mm	F#:7 (F# A# C# E)	.	.	voice
4d#	-ery	.	.	.	.	.	.	.
4e	place	.	.	.	.	.	.	.
8d#	we	.	.	.	.	.	.	.
8f#	go	.	.	.	.	.	.	.
=20	=20	=20	=20	=20	=20	=20	=20	=20
4r	.	1r	.	1BM	B:maj (B D# F#)	.	.	voice
4d#	So	.	.	.	.	.	.	.
4e	won't	.	.	.	.	.	.	.
8f#	you	.	.	.	.	.	.	.
8[g#	please	.	.	.	.	.	.	.
=21	=21	=21	=21	=21	=21	=21	=21	=21
8g#]	_	1r	.	1BM	B:maj (B D# F#)	.	.	voice
8r	.	.	.	.	.	.	.	.
4r	.	.	.	.	.	.	.	.
2r	.	.	.	.	.	.	.	.
=22	=22	=22	=22	=22	=22	=22	=22	=22
*	*	*	*	*>D_chorus	*>D_chorus	*>D_chorus	*>D_chorus	*>D_chorus
4.r	.	4r	.	1EM	E:maj (E G# B)	newline	37.491	voice
.	.	4e	Be	.	.	.	.	.
16r	.	.	.	.	.	.	.	.
16[g#	Be	.	.	.	.	.	.	.
16g#]	_	2d#	my	.	.	.	.	.
8.f#	my	.	.	.	.	.	.	.
16e	li-	.	.	.	.	.	.	.
8f#	-ttle	.	.	.	.	.	.	.
16[g#	ba-	.	.	.	.	.	.	.
=23	=23	=23	=23	=23	=23	=23	=23	=23
8g#]	_	8c#	Be	1EM	E:maj (E G# B)	.	.	voice
4.[e	-by	4c#	my	.	.	.	.	.
.	.	8[d#	ba-	.	.	.	.	.
4e]	_	4d#]	_	.	.	.	.	.
4r	.	8e	-by	.	.	.	.	.
.	.	8r	.	.	.	.	.	.
=24	=24	=24	=24	=24	=24	=24	=24	=24
4.r	.	4r	.	1C#m	C#:min (C# E G#)	.	.	voice
.	.	4e	My	.	.	.	.	.
16r	.	.	.	.	.	.	.	.
16[g#	Say	.	.	.	.	.	.	.
16g#]	_	4.d#	one	.	.	.	.	.
8f#	you'll	.	.	.	.	.	.	.
8e	be	.	.	.	.	.	.	.
8f#	my	.	.	.	.	.	.	.
.	.	8d#	and	.	.	.	.	.
16f#	dar-	.	.	.	.	.	.	.
=25	=25	=25	=25	=25	=25	=25	=25	=25
16g#	_	4c#	on-	1C#m	C#:min (C# E G#)	.	.	voice
16f#	_	.	.	.	.	.	.	.
16e	_	.	.	.	.	.	.	.
8.f#	_	.	.	.	.	.	.	.
.	.	8c#	-ly	.	.	.	.	.
8[d#	-ling	8[d#	ba-	.	.	.	.	.
4d#]	_	4d#]	_	.	.	.	.	.
4r	.	8e	-by	.	.	.	.	.
.	.	8r	.	.	.	.	.	.
=26	=26	=26	=26	=26	=26	=26	=26	=26
4.r	.	4r	.	1AM	A:maj (A C# E)	newline	44.993	voice
.	.	4e	Be	.	.	.	.	.
8a	Be	.	.	.	.	.	.	.
6a	my	2d#	my	.	.	.	.	.
6g#	ba-	.	.	.	.	.	.	.
6f#	-by	.	.	.	.	.	.	.
=27	=27	=27	=27	=27	=27	=27	=27	=27
4.a	now	8c#	Be	1AM	A:maj (A C# E)	.	.	voice
.	.	4c#	my	.	.	.	.	.
16g#	_	8[d#	ba-	.	.	.	.	.
16a	_	.	.	.	.	.	.	.
4f#	_	4d#]	_	.	.	.	.	.
8r	.	8e	-by	.	.	.	.	.
8a	Ooh	8r	.	.	.	.	.	.
=28	=28	=28	=28	=28	=28	=28	=28	=28
4b	Woh	4r	.	1BMm	B:7 (B D# F# A)	.	.	voice
4a	oh	4e	My	.	.	.	.	.
4g#	oh	4.d#	one	.	.	.	.	.
4f#	oh	.	.	.	.	.	.	.
.	.	8d#	and	.	.	.	.	.
=29	=29	=29	=29	=29	=29	=29	=29	=29
2r	.	4c#	on-	1BMm	B:7 (B D# F# A)	.	.	voice
.	.	8c#	-ly	.	.	.	.	.
.	.	8f#	ba-	.	.	.	.	.
8r	.	4g#	_	.	.	.	.	.
8e	I'll	.	.	.	.	.	.	.
8e	make	8f#	-by	.	.	.	.	.
8d#	you	8r	.	.	.	.	.	.
=30	=30	=30	=30	=30	=30	=30	=30	=30
*	*	*	*	*>B_verse	*>B_verse	*>B_verse	*>B_verse	*>B_verse
8.d#	ha-	1r	.	1EM	E:maj (E G# B)	newline	52.408	.
8.c#	-ppy	.	.	.	.	.	.	.
8.d#	ba-	.	.	.	.	.	.	.
8.[e	-by	.	.	.	.	.	.	.
8e]	_	.	.	.	.	.	.	.
8r	.	.	.	.	.	.	.	.
=31	=31	=31	=31	=31	=31	=31	=31	=31
4.r	.	1r	.	1EM	E:maj (E G# B)	.	.	.
8[f#	Just	.	.	.	.	.	.	.
8f#]	_	.	.	.	.	.	.	.
8f#	wait	.	.	.	.	.	.	.
4e	and	.	.	.	.	.	.	.
=32	=32	=32	=32	=32	=32	=32	=32	=32
4d#	see	1r	.	1F#m	F#:min (F# A C#)	.	.	.
4r	.	.	.	.	.	.	.	.
2r	.	.	.	.	.	.	.	.
=33	=33	=33	=33	=33	=33	=33	=33	=33
4r	.	1r	.	1BM	B:maj (B D# F#)	.	.	.
8r	.	.	.	.	.	.	.	.
8e	For	.	.	.	.	.	.	.
4e	ev-	.	.	.	.	.	.	.
4d#	-ery	.	.	.	.	.	.	.
=34	=34	=34	=34	=34	=34	=34	=34	=34
4d#	kiss	1r	.	1EM	E:maj (E G# B)	.	.	.
8r	.	.	.	.	.	.	.	.
8c#	you	.	.	.	.	.	.	.
8d#	give	.	.	.	.	.	.	.
4.e	me	.	.	.	.	.	.	.
=35	=35	=35	=35	=35	=35	=35	=35	=35
4.r	.	1r	.	1EM	E:maj (E G# B)	.	.	.
8[f#	I'll	.	.	.	.	.	.	.
8f#]	_	.	.	.	.	.	.	.
8f#	give	.	.	.	.	.	.	.
4e	you	.	.	.	.	.	.	.
=36	=36	=36	=36	=36	=36	=36	=36	=36
4d#	three	1r	.	1F#m	F#:min (F# A C#)	.	.	.
4r	.	.	.	.	.	.	.	.
2r	.	.	.	.	.	.	.	.
=37	=37	=37	=37	=37	=37	=37	=37	=37
4.r	.	1r	.	1BM	B:maj (B D# F#)	.	.	.
8[g#	Oh	.	.	.	.	.	.	.
8g#]	_	.	.	.	.	.	.	.
8f##	since	.	.	.	.	.	.	.
8g#	the	.	.	.	.	.	.	.
8[a	day	.	.	.	.	.	.	.
=38	=38	=38	=38	=38	=38	=38	=38	=38
*	*	*	*	*>C_bridge	*>C_bridge	*>C_bridge	*>C_bridge	*>C_bridge
8a]	_	1r	.	1G#Mm	G#:7 (G# B# D# F#)	newline	67.397	.
4g#	I	.	.	.	.	.	.	.
8[f##	saw	.	.	.	.	.	.	.
8f	_	.	.	.	.	.	.	.
4.g#	you	.	.	.	.	.	.	.
=39	=39	=39	=39	=39	=39	=39	=39	=39
4.r	.	1r	.	1G#Mm	G#:7 (G# B# D# F#)	.	.	.
8.g#	I	.	.	.	.	.	.	.
8.f##]	have	.	.	.	.	.	.	.
8.g#	been	.	.	.	.	.	.	.
16[a	wai-	.	.	.	.	.	.	.
=40	=40	=40	=40	=40	=40	=40	=40	=40
8a]	_	1r	.	1C#Mm	C#:7 (C# E# G# B)	.	.	.
4g#	-ting	.	.	.	.	.	.	.
8[e#	for	.	.	.	.	.	.	.
8e#]	_	.	.	.	.	.	.	.
4.c#	you	.	.	.	.	.	.	.
=41	=41	=41	=41	=41	=41	=41	=41	=41
4r	.	1r	.	1C#Mm	C#:7 (C# E# G# B)	.	.	.
8r	.	.	.	.	.	.	.	.
8f#	You	.	.	.	.	.	.	.
8e#	know	.	.	.	.	.	.	.
4f#	I	.	.	.	.	.	.	.
8[g	will	.	.	.	.	.	.	.
=42	=42	=42	=42	=42	=42	=42	=42	=42
8g]	_	1r	.	1F#Mm	F#:7 (F# A# C# E)	newline	74.882	.
4f#	a-	.	.	.	.	.	.	.
8e	-dore	.	.	.	.	.	.	.
8c#	_	.	.	.	.	.	.	.
8c#	you	.	.	.	.	.	.	.
4r	.	.	.	.	.	.	.	.
=43	=43	=43	=43	=43	=43	=43	=43	=43
4d#	till	1r	.	1F#Mm	F#:7 (F# A# C# E)	.	.	.
4d#	e-	.	.	.	.	.	.	.
8e	-tern-	.	.	.	.	.	.	.
4e#	-i-	.	.	.	.	.	.	.
8[f#	-ty	.	.	.	.	.	.	.
=44	=44	=44	=44	=44	=44	=44	=44	=44
8f#]	_	1r	.	1BM	B:maj (B D# F#)	.	.	.
8r	.	.	.	.	.	.	.	.
4g#	So	.	.	.	.	.	.	.
4b	won't	.	.	.	.	.	.	.
4g#	you	.	.	.	.	.	.	.
=45	=45	=45	=45	=45	=45	=45	=45	=45
8f#	please	1r	.	1BM	B:maj (B D# F#)	.	.	.
4.e	_	.	.	.	.	.	.	.
2r	.	.	.	.	.	.	.	.
=46	=46	=46	=46	=46	=46	=46	=46	=46
*	*	*	*	*>D_chorus	*>D_chorus	*>D_chorus	*>D_chorus	*>D_chorus
4.r	.	4r	.	1EM	E:maj (E G# B)	newline	82.228	.
.	.	4e	Be	.	.	.	.	.
16r	.	.	.	.	.	.	.	.
16[g#	Be	.	.	.	.	.	.	.
16g#]	_	2d#	my	.	.	.	.	.
8.f#	my	.	.	.	.	.	.	.
16e	li-	.	.	.	.	.	.	.
8f#	-ttle	.	.	.	.	.	.	.
16[g#	ba-	.	.	.	.	.	.	.
=47	=47	=47	=47	=47	=47	=47	=47	=47
8g#]	_	8c#	Be	1EM	E:maj (E G# B)	.	.	.
4.[e	-by	4c#	my	.	.	.	.	.
.	.	8[d#	ba-	.	.	.	.	.
4.e]	_	4d#]	_	.	.	.	.	.
.	.	8e	-by	.	.	.	.	.
8r	.	8r	.	.	.	.	.	.
=48	=48	=48	=48	=48	=48	=48	=48	=48
4.r	.	4r	.	1C#m	C#:min (C# E G#)	.	.	.
.	.	4e	My	.	.	.	.	.
16r	.	.	.	.	.	.	.	.
16[g#	Say	.	.	.	.	.	.	.
16g#]	_	4.d#	one	.	.	.	.	.
8f#	you'll	.	.	.	.	.	.	.
8e	be	.	.	.	.	.	.	.
8f#	my	.	.	.	.	.	.	.
.	.	8d#	and	.	.	.	.	.
16f#	dar-	.	.	.	.	.	.	.
=49	=49	=49	=49	=49	=49	=49	=49	=49
16g#	_	4c#	on-	1C#m	C#:min (C# E G#)	.	.	.
16f#	_	.	.	.	.	.	.	.
16e	_	.	.	.	.	.	.	.
8f#	_	.	.	.	.	.	.	.
.	.	8c#	-ly	.	.	.	.	.
16e	_	.	.	.	.	.	.	.
8[d#	-ling	8[d#	ba-	.	.	.	.	.
4d#]	_	4d#]	_	.	.	.	.	.
4r	.	8e	-by	.	.	.	.	.
.	.	8r	.	.	.	.	.	.
=50	=50	=50	=50	=50	=50	=50	=50	=50
4.r	.	4r	.	1AM	A:maj (A C# E)	newline	89.848	voice
.	.	4e	Be	.	.	.	.	.
8a	Be	.	.	.	.	.	.	.
6a	my	2d#	my	.	.	.	.	.
6g#	ba-	.	.	.	.	.	.	.
6f#	-by	.	.	.	.	.	.	.
=51	=51	=51	=51	=51	=51	=51	=51	=51
4.a	now	8c#	Be	1AM	A:maj (A C# E)	.	.	voice
.	.	4c#	my	.	.	.	.	.
16g#	_	8[d#	ba-	.	.	.	.	.
16a	_	.	.	.	.	.	.	.
4f#	_	4d#]	_	.	.	.	.	.
8r	.	8e	-by	.	.	.	.	.
8a	Ooh	8r	.	.	.	.	.	.
=52	=52	=52	=52	=52	=52	=52	=52	=52
4b	Woh	4r	.	1BMm	B:7 (B D# F# A)	.	.	voice
4a	oh	4e	My	.	.	.	.	.
4g#	oh	4.d#	one	.	.	.	.	.
16g#	oh	.	.	.	.	.	.	.
8.f#	_	.	.	.	.	.	.	.
.	.	8d#	and	.	.	.	.	.
=53	=53	=53	=53	=53	=53	=53	=53	=53
2e	oh	4c#	on-	1BMm	B:7 (B D# F# A)	.	.	voice
.	.	8c#	-ly	.	.	.	.	.
.	.	8f#	ba-	.	.	.	.	.
2r	.	4g#	_	.	.	.	.	.
.	.	8f#	-by	.	.	.	.	.
.	.	8r	.	.	.	.	.	.
=54	=54	=54	=54	=54	=54	=54	=54	=54
*	*	*	*	*>B_solo	*>B_solo	*>B_solo	*>B_solo	*>B_solo
1r	.	1r	.	1EM	E:maj (E G# B)	newline	97.348	strings
=55	=55	=55	=55	=55	=55	=55	=55	=55
1r	.	1r	.	1EM	E:maj (E G# B)	.	.	strings
=56	=56	=56	=56	=56	=56	=56	=56	=56
1r	.	1r	.	1F#m	F#:min (F# A C#)	.	.	strings
=57	=57	=57	=57	=57	=57	=57	=57	=57
1r	.	1r	.	1BM	B:maj (B D# F#)	.	.	strings
=58	=58	=58	=58	=58	=58	=58	=58	=58
1r	.	1r	.	1EM	E:maj (E G# B)	.	.	strings
=59	=59	=59	=59	=59	=59	=59	=59	=59
1r	.	1r	.	1EM	E:maj (E G# B)	.	.	strings
=60	=60	=60	=60	=60	=60	=60	=60	=60
4.r	.	1r	.	1F#m	F#:min (F# A C#)	.	.	strings
8g#	So	.	.	.	.	.	.	.
8b	come	.	.	.	.	.	.	.
4g#	on	.	.	.	.	.	.	.
8g#	and	.	.	.	.	.	.	.
=61	=61	=61	=61	=61	=61	=61	=61	=61
8f#	please	1r	.	1BM	B:maj (B D# F#)	.	.	strings
8e	_	.	.	.	.	.	.	.
8f#	_	.	.	.	.	.	.	.
8e	_	.	.	.	.	.	.	.
2r	.	.	.	.	.	.	.	.
=62	=62	=62	=62	=62	=62	=62	=62	=62
*	*	*	*	*>D_chorus	*>D_chorus	*>D_chorus	*>D_chorus	*>D_chorus
4.r	.	4r	.	1EM	E:maj (E G# B)	newline	112.388	voice
.	.	4e	Be	.	.	.	.	.
16r	.	.	.	.	.	.	.	.
16[g#	Be	.	.	.	.	.	.	.
16g#]	_	2d#	my	.	.	.	.	.
8.f#	my	.	.	.	.	.	.	.
16e	li-	.	.	.	.	.	.	.
8f#	-ttle	.	.	.	.	.	.	.
16[g#	ba-	.	.	.	.	.	.	.
=63	=63	=63	=63	=63	=63	=63	=63	=63
8g#]	_	8c#	Be	1EM	E:maj (E G# B)	.	.	voice
4.[e	-by	4c#	my	.	.	.	.	.
.	.	8[d#	ba-	.	.	.	.	.
2e]	_	4d#]	_	.	.	.	.	.
.	.	8e	-by	.	.	.	.	.
.	.	8r	.	.	.	.	.	.
=64	=64	=64	=64	=64	=64	=64	=64	=64
4.r	.	4r	.	1C#m	C#:min (C# E G#)	.	.	voice
.	.	4e	My	.	.	.	.	.
16r	.	.	.	.	.	.	.	.
16[g#	Say	.	.	.	.	.	.	.
16g#]	_	4.d#	one	.	.	.	.	.
8f#	you'll	.	.	.	.	.	.	.
8e	be	.	.	.	.	.	.	.
8f#	my	.	.	.	.	.	.	.
.	.	8d#	and	.	.	.	.	.
16f#	dar-	.	.	.	.	.	.	.
=65	=65	=65	=65	=65	=65	=65	=65	=65
16g#	_	4c#	on-	1C#m	C#:min (C# E G#)	.	.	voice
16f#	_	.	.	.	.	.	.	.
16e	_	.	.	.	.	.	.	.
8f#	_	.	.	.	.	.	.	.
.	.	8c#	-ly	.	.	.	.	.
16e	_	.	.	.	.	.	.	.
8[d#	-ling	8[d#	ba-	.	.	.	.	.
2d#]	_	4d#]	_	.	.	.	.	.
.	.	8e	-by	.	.	.	.	.
.	.	8r	.	.	.	.	.	.
=66	=66	=66	=66	=66	=66	=66	=66	=66
4.r	.	4r	.	1AM	A:maj (A C# E)	newline	119.997	voice
.	.	4e	Be	.	.	.	.	.
8a	Be	.	.	.	.	.	.	.
6a	my	2d#	my	.	.	.	.	.
6g#	ba-	.	.	.	.	.	.	.
6f#	-by	.	.	.	.	.	.	.
=67	=67	=67	=67	=67	=67	=67	=67	=67
4.a	now	8c#	Be	1AM	A:maj (A C# E)	.	.	voice
.	.	4c#	my	.	.	.	.	.
16g#	_	8[d#	ba-	.	.	.	.	.
16a	_	.	.	.	.	.	.	.
4f#	_	4d#]	_	.	.	.	.	.
4r	.	8e	-by	.	.	.	.	.
.	.	8r	.	.	.	.	.	.
=68	=68	=68	=68	=68	=68	=68	=68	=68
4b	Woh	4r	.	1BMm	B:7 (B D# F# A)	.	.	voice
4a	oh	4e	My	.	.	.	.	.
4g#	oh	4.d#	one	.	.	.	.	.
4f#	oh	.	.	.	.	.	.	.
.	.	8d#	and	.	.	.	.	.
=69	=69	=69	=69	=69	=69	=69	=69	=69
1r	.	4c#	on-	1BMm	B:7 (B D# F# A)	.	.	voice
.	.	8c#	-ly	.	.	.	.	.
.	.	8f#	ba-	.	.	.	.	.
.	.	4g#	_	.	.	.	.	.
.	.	8f#	-by	.	.	.	.	.
.	.	8r	.	.	.	.	.	.
=70	=70	=70	=70	=70	=70	=70	=70	=70
1r	.	1r	.	1N	N	newline	127.45	voice
=71	=71	=71	=71	=71	=71	=71	=71	=71
1r	.	1r	.	1N	N	.	.	voice
=72	=72	=72	=72	=72	=72	=72	=72	=72
*	*	*	*	*>D_chorus	*>D_chorus	*>D_chorus	*>D_chorus	*>D_chorus
4.r	.	4r	.	1EM	E:maj (E G# B)	newline	131.221	voice
.	.	4e	Be	.	.	.	.	.
16r	.	.	.	.	.	.	.	.
16[g#	Be	.	.	.	.	.	.	.
16g#]	_	2d#	my	.	.	.	.	.
8.f#	my	.	.	.	.	.	.	.
16e	li-	.	.	.	.	.	.	.
8f#	-ttle	.	.	.	.	.	.	.
16[g#	ba-	.	.	.	.	.	.	.
=73	=73	=73	=73	=73	=73	=73	=73	=73
8g#]	_	8c#	Be	1EM	E:maj (E G# B)	.	.	voice
4.[e	-by	4c#	my	.	.	.	.	.
.	.	8[d#	ba-	.	.	.	.	.
2e]	_	4d#]	_	.	.	.	.	.
.	.	8e	-by	.	.	.	.	.
.	.	8r	.	.	.	.	.	.
=74	=74	=74	=74	=74	=74	=74	=74	=74
4.r	.	4r	.	1C#m	C#:min (C# E G#)	.	.	voice
.	.	4e	My	.	.	.	.	.
16f#	Oh	.	.	.	.	.	.	.
16g#	_	.	.	.	.	.	.	.
16f#	_	4.d#	one	.	.	.	.	.
8e	_	.	.	.	.	.	.	.
16[f#	_	.	.	.	.	.	.	.
8f#]	_	.	.	.	.	.	.	.
16g#	_	8d#	and	.	.	.	.	.
16f#	_	.	.	.	.	.	.	.
=75	=75	=75	=75	=75	=75	=75	=75	=75
8e	_	4c#	on-	1C#m	C#:min (C# E G#)	.	.	voice
8f#	_	.	.	.	.	.	.	.
2.e	_	8c#	-ly	.	.	.	.	.
.	.	8[d#	ba-	.	.	.	.	.
.	.	4d#]	_	.	.	.	.	.
.	.	8e	-by	.	.	.	.	.
.	.	8r	.	.	.	.	.	.
=76	=76	=76	=76	=76	=76	=76	=76	=76
4.r	.	4r	.	1AM	A:maj (A C# E)	newline	138.574	voice
.	.	4e	Be	.	.	.	.	.
16g#	Oh	.	.	.	.	.	.	.
16a	_	.	.	.	.	.	.	.
8g#	_	2d#	my	.	.	.	.	.
4f#	_	.	.	.	.	.	.	.
8a	_	.	.	.	.	.	.	.
=77	=77	=77	=77	=77	=77	=77	=77	=77
8a	_	8c#	Be	1AM	A:maj (A C# E)	.	.	voice
8a	_	4c#	my	.	.	.	.	.
8a	_	.	.	.	.	.	.	.
8a	_	8[d#	ba-	.	.	.	.	.
8a	_	4d#]	_	.	.	.	.	.
8r	.	.	.	.	.	.	.	.
8r	.	8e	-by	.	.	.	.	.
8a	Ooh	8r	.	.	.	.	.	.
=78	=78	=78	=78	=78	=78	=78	=78	=78
4b	Woh	4r	.	1BMm	B:7 (B D# F# A)	.	.	voice
4a	oh	4e	My	.	.	.	.	.
4g#	oh	4.d#	one	.	.	.	.	.
4f#	oh	.	.	.	.	.	.	.
.	.	8d#	and	.	.	.	.	.
=79	=79	=79	=79	=79	=79	=79	=79	=79
1[e	oh	4c#	on-	1BMm	B:7 (B D# F# A)	.	.	voice
.	.	8c#	-ly	.	.	.	.	.
.	.	8f#	ba-	.	.	.	.	.
.	.	4g#	_	.	.	.	.	.
.	.	8f#	-by	.	.	.	.	.
.	.	8r	.	.	.	.	.	.
=80	=80	=80	=80	=80	=80	=80	=80	=80
*	*	*	*	*>D_chorus	*>D_chorus	*>D_chorus	*>D_chorus	*>D_chorus
4e]	_	4r	.	1EM	E:maj (E G# B)	newline	145.987	fadeout
8r	.	4e	Be	.	.	.	.	.
16g#	Oh	.	.	.	.	.	.	.
16f#	_	.	.	.	.	.	.	.
8e	_	2d#	my	.	.	.	.	.
8e	oh	.	.	.	.	.	.	.
8f#	_	.	.	.	.	.	.	.
8[e	_	.	.	.	.	.	.	.
=81	=81	=81	=81	=81	=81	=81	=81	=81
1e]	_	8c#	Be	1EM	E:maj (E G# B)	.	.	fadeout
.	.	4c#	my	.	.	.	.	.
.	.	8[d#	ba-	.	.	.	.	.
.	.	4d#]	_	.	.	.	.	.
.	.	8e	-by	.	.	.	.	.
.	.	8r	.	.	.	.	.	.
=82	=82	=82	=82	=82	=82	=82	=82	=82
4.r	.	4r	.	1C#m	C#:min (C# E G#)	.	.	fadeout
.	.	4e	My	.	.	.	.	.
8[g#	Oh	.	.	.	.	.	.	.
16g#]	_	4.d#	one	.	.	.	.	.
8f#	_	.	.	.	.	.	.	.
16[e	_	.	.	.	.	.	.	.
16e]	_	.	.	.	.	.	.	.
8.f#	_	.	.	.	.	.	.	.
.	.	8d#	and	.	.	.	.	.
=83	=83	=83	=83	=83	=83	=83	=83	=83
16g#	_	4c#	on-	1C#m	C#:min (C# E G#)	.	.	fadeout
16f#	_	.	.	.	.	.	.	.
8e	_	.	.	.	.	.	.	.
8f#	Oh	8c#	-ly	.	.	.	.	.
8[e	_	8[d#	ba-	.	.	.	.	.
2e]	_	4d#]	_	.	.	.	.	.
.	.	8e	-by	.	.	.	.	.
.	.	8r	.	.	.	.	.	.
=84	=84	=84	=84	=84	=84	=84	=84	=84
4.r	.	4r	.	1AM	A:maj (A C# E)	newline	153.324	voice
.	.	4e	Be	.	.	.	.	.
8a	Be	.	.	.	.	.	.	.
6a	my	2d#	my	.	.	.	.	.
6g#	ba-	.	.	.	.	.	.	.
6f#	-by	.	.	.	.	.	.	.
=85	=85	=85	=85	=85	=85	=85	=85	=85
4.a	now	8c#	Be	1AM	A:maj (A C# E)	.	.	voice
.	.	4c#	my	.	.	.	.	.
16g#	_	8[d#	ba-	.	.	.	.	.
16a	_	.	.	.	.	.	.	.
4f#	_	4d#]	_	.	.	.	.	.
4r	.	8e	-by	.	.	.	.	.
.	.	8r	.	.	.	.	.	.
=86	=86	=86	=86	=86	=86	=86	=86	=86
1r	.	4r	.	1BMm	B:7 (B D# F# A)	.	.	voice
.	.	4e	My	.	.	.	.	.
.	.	4.d#	one	.	.	.	.	.
.	.	8d#	and	.	.	.	.	.
=86	=86	=86	=86	=86	=86	=86	=86	=86
r;	.	4c#	on-	1BMm	B:7 (B D# F# A)	.	.	voice
r;	.	8c#	-ly	.	.	.	.	.
*-	*-	*	*	*	*	*	*	*
8f#	ba-	.	.	.	.	.	.	.
4g#	_	.	.	.	.	.	.	.
8f#	-by	.	.	.	.	.	.	.
8r	.	.	.	.	.	.	.	.
r;	.	.	.	1r;	r	.	158.618	r
r;	.	.	.	1r;	r	.	159.007	r
*-	*-	*-	*-	*-	*-	*-	*-	*-
!!!BillboardChartDate: 1963/09/28, 1963/09/28
!!!BillboardPeak: 2, 2
!!!BillboardWeeksOnChart: 13, 13
!!!COC: The Ronettes
!!!ENC: Nathaniel Condit-Schultz
!!!EST: Awating manual error checking and editing.
!!!OTL: Be My Baby
!!!RDF**chordsym: original McGill chord annotation + (implied pitch class set, with bass pitch in first position)
!!!RDF**harmony: **recip + pitch class of root + harmonic quality
!!!RDF**leadinstrument: original McGill primary instrumentation annotation
!!!RDF**phrase: newline = linebreak in original McGill transcription
!!!RDF**timestamp: McGill audio timestamp in seconds
!!!RDT: 2017/01/12/
!!!SampleActualRank: 3, 3
!!!SampleID#: 120, 903
!!!SampleTargetRank: 1, 3
